package/svg/logo_netflix_text.svg

<svg width="56" height="56" viewBox="0 0 56 56" fill="none" xmlns="http://www.w3.org/2000/svg">
<path d="M7.7 34.5921C6.858 34.7401 6.001 34.7841 5.114 34.9021L2.409 26.9801V35.2421C1.567 35.3311 0.798 35.4491 0 35.5671V20.4331H2.247L5.321 29.0201V20.4331H7.7V34.5921V34.5921ZM12.356 25.9751C13.272 25.9751 14.676 25.9311 15.519 25.9311V28.2961C14.469 28.2961 13.243 28.2961 12.356 28.3401V31.8571C13.745 31.7691 15.134 31.6501 16.538 31.6061V33.8821L9.991 34.3991V20.4331H16.538V22.7981H12.356V25.9751V25.9751ZM25.332 22.7981H22.879V33.6751C22.081 33.6751 21.283 33.6751 20.514 33.7051V22.7981H18.061V20.4331H25.332V22.7981V22.7981ZM29.175 25.8131H32.412V28.1771H29.175V33.5421H26.854V20.4331H33.461V22.7981H29.175V25.8131V25.8131ZM37.304 31.4731C38.649 31.5031 40.008 31.6061 41.324 31.6801V34.0151C39.21 33.8821 37.097 33.7491 34.939 33.7051V20.4331H37.304V31.4731ZM43.319 34.1781C44.073 34.2221 44.871 34.2671 45.639 34.3551V20.4331H43.319V34.1781ZM56 20.4331L53 27.6311L56 35.5671C55.113 35.4491 54.226 35.2861 53.34 35.1391L51.64 30.7641L49.911 34.7841C49.054 34.6361 48.226 34.5921 47.369 34.4731L50.413 27.5421L47.664 20.4331H50.206L51.758 24.4091L53.414 20.4331H56V20.4331Z" fill="black"/>
</svg>

<svg width="100%" height="100%" viewBox="0 0 56 56" version="1.1" xmlns="http://www.w3.org/2000/svg"><g><path d="M7.7,34.592c-0.842,0.148 -1.699,0.192 -2.586,0.31l-2.705,-7.922l0,8.262c-0.842,0.089 -1.611,0.207 -2.409,0.325l-0,-15.134l2.247,-0l3.074,8.587l-0,-8.587l2.379,-0l0,14.159Zm4.656,-8.617c0.916,0 2.32,-0.044 3.163,-0.044l-0,2.365c-1.05,-0 -2.276,-0 -3.163,0.044l-0,3.517c1.389,-0.088 2.778,-0.207 4.182,-0.251l0,2.276l-6.547,0.517l-0,-13.966l6.547,-0l0,2.365l-4.182,-0l-0,3.177Zm12.976,-3.177l-2.453,-0l-0,10.877c-0.798,0 -1.596,0 -2.365,0.03l0,-10.907l-2.453,-0l-0,-2.365l7.271,-0l0,2.365Zm3.843,3.015l3.237,-0l-0,2.364l-3.237,0l-0,5.365l-2.321,0l0,-13.109l6.607,-0l0,2.365l-4.286,-0l-0,3.015Zm8.129,5.66c1.345,0.03 2.704,0.133 4.02,0.207l-0,2.335c-2.114,-0.133 -4.227,-0.266 -6.385,-0.31l0,-13.272l2.365,-0l-0,11.04Zm6.015,2.705c0.754,0.044 1.552,0.089 2.32,0.177l0,-13.922l-2.32,-0l0,13.745Zm12.681,-13.745l-3,7.198l3,7.936c-0.887,-0.118 -1.774,-0.281 -2.66,-0.428l-1.7,-4.375l-1.729,4.02c-0.857,-0.148 -1.685,-0.192 -2.542,-0.311l3.044,-6.931l-2.749,-7.109l2.542,-0l1.552,3.976l1.656,-3.976l2.586,-0Z" style="fill-rule:nonzero;"/></g></svg>
